X:1
T:Little Moses
M:3/4
L:1/4
K:G
 D| G G G| A B A| G3-| G2 D| G G G| A B A| G3-| G2 G| A A A| A A A|\
 A3/2 A/2 A| A A A| G G G| A B A| G3-| G2 d| d d d| d2 e| d d B| d2 G|\
 B3/2 B/2 B| A B A| G3-| G2 d| d d d| d2 e| d d B| d2 G| B3/2 B/2 B|\
 A B A| G3-| G2 z|
